packages/core/src/svgs/med.svg

<svg width="24" height="24" viewBox="0 0 24 24" fill="none" xmlns="http://www.w3.org/2000/svg">
<g clip-path="url(#clip0_31_13642)">
<path d="M0 0H24V24H0V0Z" fill="#2073E9"/>
<path d="M8.37007 7.54293C8.6015 6.9815 9.31293 6.78864 9.76722 7.0115C10.4872 7.36721 10.3544 8.0015 10.2001 8.4515L6.9215 16.6586C6.60865 17.1472 6.03007 17.2715 5.60579 17.0058C5.08722 16.6801 5.10007 15.9258 5.19436 15.6301C6.18865 13.1101 8.13865 8.11293 8.36579 7.54721L8.37007 7.54293ZM12.9001 7.43579C13.0629 7.05436 13.6886 6.72864 14.1258 7.00721C14.6615 7.3415 14.6101 7.98007 14.5072 8.25864L12.8144 12.5872C12.5358 13.1444 11.9958 13.4572 11.4515 13.1444C10.9115 12.8229 11.0572 12.1629 11.1944 11.8372L12.8958 7.43579H12.9001Z" fill="white"/>
<path d="M16.8043 7.67157C17.1471 6.92157 17.7728 6.65157 18.3557 7.003C19.1571 7.483 18.7843 8.27586 18.6085 8.73015L15.7285 16.4359C15.3985 17.0744 14.82 17.3359 14.25 17.0187C13.6757 16.6973 13.6671 15.9816 13.9071 15.4459C15.0385 12.9044 16.5428 8.24586 16.8043 7.67157Z" fill="white" fill-opacity="0.5"/>
<path d="M17.7858 8.99979C18.3775 8.99979 18.8572 8.5201 18.8572 7.92836C18.8572 7.33663 18.3775 6.85693 17.7858 6.85693C17.1941 6.85693 16.7144 7.33663 16.7144 7.92836C16.7144 8.5201 17.1941 8.99979 17.7858 8.99979Z" fill="white"/>
<path d="M14.7858 17.1429C15.3775 17.1429 15.8572 16.6632 15.8572 16.0714C15.8572 15.4797 15.3775 15 14.7858 15C14.1941 15 13.7144 15.4797 13.7144 16.0714C13.7144 16.6632 14.1941 17.1429 14.7858 17.1429Z" fill="white"/>
</g>
<defs>
<clipPath id="clip0_31_13642">
<rect width="24" height="24" fill="white"/>
</clipPath>
</defs>
</svg>

<svg xmlns="http://www.w3.org/2000/svg" width="24" height="24" fill="none" viewBox="0 0 24 24"><g clip-path="url(#a)"><path fill="#2073E9" d="M0 0h24v24H0z"/><path fill="#fff" d="M8.37 7.543c.232-.562.943-.754 1.397-.532.72.356.587.99.433 1.44L6.922 16.66c-.313.488-.892.613-1.316.347-.519-.326-.506-1.08-.412-1.376.995-2.52 2.945-7.517 3.172-8.083zm4.53-.107c.163-.382.789-.707 1.226-.429.536.335.484.973.381 1.252l-1.693 4.328c-.278.557-.818.87-1.363.557-.54-.321-.394-.981-.257-1.307l1.702-4.401z"/><path fill="#fff" fill-opacity=".5" d="M16.804 7.672c.343-.75.969-1.02 1.552-.669.801.48.428 1.273.252 1.727l-2.88 7.706c-.33.638-.908.9-1.478.583-.574-.322-.583-1.037-.343-1.573 1.132-2.542 2.636-7.2 2.897-7.774"/><path fill="#fff" d="M17.786 9a1.071 1.071 0 1 0 0-2.143 1.071 1.071 0 0 0 0 2.143M14.786 17.143a1.071 1.071 0 1 0 0-2.143 1.071 1.071 0 0 0 0 2.143"/></g><defs><clipPath id="a"><path fill="#fff" d="M0 0h24v24H0z"/></clipPath></defs></svg>
